!! 00000] TT[00
!! NN
!!!OTL: Tai shitou
!!!ARE: Asia, China, Shanxi Nanzheng(suedl. d. Qinling-Gebirges)
!! Ethnic Group: Han
!! I, 71
!!!SCT: C0022
!!!YEM: Copyright 1995, estate of Helmut Schaffrath.
**kern
*ICvox
*Ivox
*M2/4
*k[b-e-]
*B-:
{8ddd
16ddd
16fff
4ddd
=1
8ddd
8bb-
4gg
=2
4ddd
4ccc
=3
8ddd
8ccc
4bb-}
=4
{8gg
16bb-
16ccc
4bb-
=5
8gg
16bb-
16gg
4ff
=6
16gg
16bb-
8gg
4bb-
=7
8gg
16ff
16gg
8bb-
8gg
=8
2ff}
==
!!!AGN: Haozi, Tiaotai haozi. Taishi laodong zhong chang
!! 
!!!ONB: ESAC (Essen Associative Code) Database: CHINA
!!!AMT: simple duple
!!!AIN: vox
!!!EED: Helmut Schaffrath
!!!EEV: 1.0
*-
